Mono Glyph Icons/misc/misc-unfilled/congenital.svg

<svg height="48" viewBox="0 -960 960 960" width="48" xmlns="http://www.w3.org/2000/svg"><path d="m386-190q-103.04 0-191.13-52.37-88.1-52.37-136.22-144.63l-23.65-46q-13-24-10-51.5t21-48.5l199-240q10.45-13.04 24.73-22.02 14.27-8.98 29.77-11.98t31.5-.5q16 2.5 32 10.5l111 60 94-52q19-11 41-7.5t38.8 18.56q15.8 15.85 20 37.37 4.2 21.51-4.8 41.57l-124 289q-13.46 30-41.23 44-27.77 14-59.77 7l-295-61q38 66 102.65 104.5 64.66 38.5 140.35 38.5h191q52 0 97.5-20t85.5-53h-35q-36-1-57.5-36t-17.5-68l27-178q3.84-21.7 17.18-36.39 13.35-14.68 32.48-19.61 19.13-5 38.24 0 19.1 5 34.1 22l115 134q16.73 19.77 20.86 46.38 4.14 26.62-7.86 49.62l-15 31.75q-46 98.25-136.57 156.25-90.56 58-198.43 58zm447-248 17-36-93-106-21 142zm-693-73 319 68 106-244-91 49-159-85z"/></svg>

<svg xmlns="http://www.w3.org/2000/svg" height="48" viewBox="0 -960 960 960" width="48"><path d="M386-190q-103.04 0-191.13-52.37Q106.77-294.74 58.65-387L35-433q-13-24-10-51.5T46-533l199-240q10.45-13.04 24.73-22.02Q284-804 299.5-807t31.5-.5q16 2.5 32 10.5l111 60 94-52q19-11 41-7.5t38.8 18.56q15.8 15.85 20 37.37Q672-719.06 663-699L539-410q-13.46 30-41.23 44Q470-352 438-359l-295-61q38 66 102.65 104.5Q310.31-277 386-277h191q52 0 97.5-20t85.5-53h-35q-36-1-57.5-36T650-454l27-178q3.84-21.7 17.18-36.39 13.35-14.68 32.48-19.61 19.13-5 38.24 0 19.1 5 34.1 22l115 134q16.73 19.77 20.86 46.38Q939-459 927-436l-15 31.75Q866-306 775.43-248 684.87-190 577-190H386Zm447-248 17-36-93-106-21 142h97Zm-693-73 319 68 106-244-91 49-159-85-175 212Zm212-72Zm441 109Z"/></svg>
